Numix-GalliumOS/64/mimetypes/application-vnd.oasis.opendocument.database.svg

<svg xmlns="http://www.w3.org/2000/svg" xmlns:xlink="http://www.w3.org/1999/xlink" width="64px" height="64px" viewBox="0 0 64 64" version="1.1">
<g id="surface1">
<path style=" stroke:none;fill-rule:nonzero;fill:rgb(63.921569%,21.176471%,22.352941%);fill-opacity:1;" d="M 10.671875 0 C 9.296875 0 8 1.355469 8 2.789062 L 8 61.210938 C 8 62.566406 9.375 64 10.671875 64 L 53.328125 64 C 54.625 64 56 62.566406 56 61.210938 L 56 18 L 38 0 Z M 10.671875 0 "/>
<path style=" stroke:none;fill-rule:nonzero;fill:rgb(0%,0%,0%);fill-opacity:0.196078;" d="M 8 48 L 8 61.335938 C 8 62.632812 9.375 64 10.664062 64 L 53.335938 64 C 54.625 64 56 62.632812 56 61.335938 L 56 48 Z M 8 48 "/>
<path style=" stroke:none;fill-rule:nonzero;fill:rgb(0%,0%,0%);fill-opacity:0.196078;" d="M 42 18 L 56 32 L 56 18 Z M 42 18 "/>
<path style=" stroke:none;fill-rule:nonzero;fill:rgb(100%,100%,100%);fill-opacity:1;" d="M 20.613281 56.21875 C 20.613281 56.753906 20.640625 57.257812 20.671875 57.726562 C 20.730469 58.1875 20.824219 58.59375 20.949219 58.9375 C 21.101562 59.28125 21.292969 59.546875 21.546875 59.75 C 21.796875 59.949219 22.140625 60.050781 22.558594 60.050781 C 22.96875 60.050781 23.304688 59.949219 23.558594 59.75 C 23.816406 59.546875 24.019531 59.28125 24.152344 58.9375 C 24.292969 58.574219 24.386719 58.171875 24.429688 57.710938 C 24.480469 57.25 24.503906 56.753906 24.503906 56.21875 C 24.503906 55.691406 24.480469 55.195312 24.429688 54.734375 C 24.386719 54.257812 24.292969 53.855469 24.152344 53.511719 C 24.019531 53.167969 23.824219 52.898438 23.574219 52.699219 C 23.324219 52.496094 22.988281 52.394531 22.558594 52.394531 C 22.140625 52.394531 21.796875 52.496094 21.546875 52.699219 C 21.292969 52.898438 21.101562 53.175781 20.949219 53.527344 C 20.824219 53.871094 20.730469 54.273438 20.671875 54.734375 C 20.640625 55.195312 20.613281 55.691406 20.613281 56.21875 M 18.132812 56.21875 C 18.132812 54.332031 18.527344 52.90625 19.304688 51.953125 C 20.085938 50.980469 21.167969 50.5 22.558594 50.5 C 24 50.5 25.101562 50.980469 25.855469 51.953125 C 26.609375 52.90625 26.984375 54.332031 26.984375 56.21875 C 26.984375 58.113281 26.601562 59.539062 25.835938 60.511719 C 25.066406 61.46875 23.984375 61.945312 22.585938 61.945312 C 21.140625 61.945312 20.035156 61.46875 19.265625 60.511719 C 18.511719 59.539062 18.132812 58.113281 18.132812 56.21875 "/>
<path style=" stroke:none;fill-rule:nonzero;fill:rgb(100%,100%,100%);fill-opacity:1;" d="M 31.035156 59.941406 C 31.101562 59.957031 31.179688 59.957031 31.253906 59.957031 C 31.328125 59.957031 31.402344 59.957031 31.472656 59.957031 C 32.023438 59.957031 32.492188 59.867188 32.863281 59.683594 C 33.238281 59.488281 33.550781 59.230469 33.777344 58.902344 C 34.011719 58.566406 34.179688 58.179688 34.269531 57.726562 C 34.371094 57.265625 34.429688 56.765625 34.429688 56.21875 C 34.429688 55.75 34.390625 55.289062 34.3125 54.84375 C 34.230469 54.390625 34.085938 53.996094 33.894531 53.652344 C 33.691406 53.308594 33.425781 53.042969 33.082031 52.839844 C 32.738281 52.621094 32.292969 52.523438 31.746094 52.523438 C 31.648438 52.523438 31.519531 52.523438 31.394531 52.539062 C 31.261719 52.539062 31.144531 52.546875 31.035156 52.574219 L 31.035156 59.941406 M 36.914062 56.21875 C 36.914062 57.242188 36.761719 58.105469 36.476562 58.828125 C 36.191406 59.539062 35.804688 60.117188 35.300781 60.5625 C 34.800781 61.015625 34.195312 61.339844 33.492188 61.558594 C 32.804688 61.761719 32.050781 61.851562 31.210938 61.851562 C 30.773438 61.851562 30.347656 61.835938 29.921875 61.785156 C 29.507812 61.753906 29.074219 61.683594 28.59375 61.59375 L 28.59375 50.886719 C 29.148438 50.785156 29.667969 50.710938 30.164062 50.675781 C 30.648438 50.644531 31.109375 50.628906 31.53125 50.628906 C 32.335938 50.628906 33.074219 50.726562 33.734375 50.945312 C 34.40625 51.15625 34.976562 51.492188 35.4375 51.953125 C 35.90625 52.40625 36.257812 52.984375 36.507812 53.6875 C 36.777344 54.382812 36.914062 55.230469 36.914062 56.21875 "/>
<path style=" stroke:none;fill-rule:nonzero;fill:rgb(100%,100%,100%);fill-opacity:1;" d="M 46.753906 58.398438 C 46.753906 59.0625 46.628906 59.613281 46.378906 60.066406 C 46.125 60.503906 45.78125 60.855469 45.347656 61.132812 C 44.917969 61.390625 44.40625 61.578125 43.8125 61.695312 C 43.234375 61.804688 42.605469 61.851562 41.925781 61.851562 C 41.390625 61.851562 40.828125 61.828125 40.242188 61.769531 C 39.660156 61.71875 39.082031 61.644531 38.511719 61.535156 L 38.511719 50.886719 C 38.984375 50.820312 39.484375 50.761719 40.046875 50.710938 C 40.601562 50.652344 41.144531 50.628906 41.691406 50.628906 C 42.621094 50.628906 43.367188 50.710938 43.953125 50.886719 C 44.53125 51.054688 44.992188 51.28125 45.320312 51.566406 C 45.65625 51.835938 45.882812 52.144531 46 52.480469 C 46.117188 52.824219 46.175781 53.167969 46.175781 53.511719 C 46.175781 54.03125 46.035156 54.492188 45.738281 54.894531 C 45.464844 55.296875 45.085938 55.617188 44.609375 55.851562 C 45.4375 56.117188 46.007812 56.488281 46.292969 56.949219 C 46.605469 57.410156 46.753906 57.894531 46.753906 58.398438 M 40.953125 56.914062 L 40.953125 59.890625 C 41.128906 59.917969 41.3125 59.933594 41.515625 59.941406 C 41.722656 59.957031 41.925781 59.957031 42.125 59.957031 C 42.402344 59.957031 42.679688 59.941406 42.941406 59.90625 C 43.207031 59.859375 43.433594 59.78125 43.636719 59.683594 C 43.84375 59.554688 44.019531 59.398438 44.15625 59.195312 C 44.28125 58.984375 44.347656 58.71875 44.347656 58.398438 C 44.347656 57.871094 44.15625 57.492188 43.777344 57.265625 C 43.402344 57.03125 42.898438 56.914062 42.269531 56.914062 L 40.953125 56.914062 M 41.910156 55.105469 C 42.527344 55.105469 43 54.988281 43.316406 54.753906 C 43.636719 54.5 43.796875 54.164062 43.796875 53.738281 C 43.796875 53.476562 43.746094 53.277344 43.652344 53.125 C 43.558594 52.957031 43.433594 52.832031 43.273438 52.75 C 43.117188 52.65625 42.929688 52.597656 42.722656 52.574219 C 42.511719 52.539062 42.292969 52.523438 42.066406 52.523438 C 41.882812 52.523438 41.691406 52.523438 41.488281 52.539062 C 41.296875 52.546875 41.113281 52.5625 40.953125 52.589844 L 40.953125 55.105469 L 41.910156 55.105469 "/>
<path style=" stroke:none;fill-rule:nonzero;fill:rgb(100%,100%,100%);fill-opacity:0.392157;" d="M 38 0 L 55.984375 18 L 40.757812 18 C 39.410156 18 38 16.574219 38 15.226562 Z M 38 0 "/>
<path style=" stroke:none;fill-rule:nonzero;fill:rgb(100%,100%,100%);fill-opacity:1;" d="M 32 21.992188 C 26.476562 21.992188 22 23.390625 22 25.121094 L 22 27.617188 C 22 29.347656 26.476562 30.746094 32 30.746094 C 37.523438 30.746094 42 29.347656 42 27.617188 L 42 25.121094 C 42 23.390625 37.523438 21.992188 32 21.992188 Z M 32 21.992188 "/>
<path style=" stroke:none;fill-rule:nonzero;fill:rgb(100%,100%,100%);fill-opacity:1;" d="M 31.96875 31.992188 C 27.488281 31.992188 23.714844 31.078125 22.441406 29.808594 C 22.140625 30.101562 22 30.417969 22 30.746094 L 22 33.246094 C 22 34.972656 26.476562 36.375 32 36.375 C 37.523438 36.375 42 34.972656 42 33.246094 L 42 30.746094 C 42 30.417969 41.824219 30.101562 41.53125 29.808594 C 40.257812 31.078125 36.445312 31.992188 31.96875 31.992188 Z M 31.96875 31.992188 "/>
<path style=" stroke:none;fill-rule:nonzero;fill:rgb(100%,100%,100%);fill-opacity:1;" d="M 31.96875 37.617188 C 27.488281 37.617188 23.714844 36.703125 22.441406 35.4375 C 22.140625 35.730469 22 36.042969 22 36.375 L 22 38.871094 C 22 40.601562 26.476562 42 32 42 C 37.523438 42 42 40.601562 42 38.871094 L 42 36.375 C 42 36.042969 41.824219 35.730469 41.53125 35.4375 C 40.257812 36.703125 36.445312 37.617188 31.96875 37.617188 Z M 31.96875 37.617188 "/>
</g>
</svg>

<svg xmlns="http://www.w3.org/2000/svg" viewBox="0 0 64 64">
 <g>
  <path d="m 10.672 0 c -1.375 0 -2.672 1.355 -2.672 2.789 l 0 58.42 c 0 1.355 1.375 2.789 2.672 2.789 l 42.656 0 c 1.297 0 2.672 -1.434 2.672 -2.789 l 0 -43.21 l -18 -18 m -27.328 0" style="fill:#a33638;fill-opacity:1;stroke:none;fill-rule:nonzero"/>
  <path d="m 8 48 l 0 13.336 c 0 1.297 1.375 2.664 2.664 2.664 l 42.672 0 c 1.289 0 2.664 -1.367 2.664 -2.664 l 0 -13.336 m -48 0" style="fill:#000;fill-opacity:0.196;stroke:none;fill-rule:nonzero"/>
  <path d="m 42 18 l 14 14 l 0 -14 m -14 0" style="fill:#000;fill-opacity:0.196;stroke:none;fill-rule:nonzero"/>
  <path d="m 20.613 56.22 c 0 0.535 0.027 1.039 0.059 1.508 c 0.059 0.461 0.152 0.867 0.277 1.211 c 0.152 0.344 0.344 0.609 0.598 0.813 c 0.25 0.199 0.594 0.301 1.012 0.301 c 0.41 0 0.746 -0.102 1 -0.301 c 0.258 -0.203 0.461 -0.469 0.594 -0.813 c 0.141 -0.363 0.234 -0.766 0.277 -1.227 c 0.051 -0.461 0.074 -0.957 0.074 -1.492 c 0 -0.527 -0.023 -1.023 -0.074 -1.484 c -0.043 -0.477 -0.137 -0.879 -0.277 -1.223 c -0.133 -0.344 -0.328 -0.613 -0.578 -0.813 c -0.25 -0.203 -0.586 -0.305 -1.016 -0.305 c -0.418 0 -0.762 0.102 -1.012 0.305 c -0.254 0.199 -0.445 0.477 -0.598 0.828 c -0.125 0.344 -0.219 0.746 -0.277 1.207 c -0.031 0.461 -0.059 0.957 -0.059 1.484 m -2.48 0 c 0 -1.887 0.395 -3.313 1.172 -4.266 c 0.781 -0.973 1.863 -1.453 3.254 -1.453 c 1.441 0 2.543 0.48 3.297 1.453 c 0.754 0.953 1.129 2.379 1.129 4.266 c 0 1.895 -0.383 3.32 -1.148 4.293 c -0.77 0.957 -1.852 1.434 -3.25 1.434 c -1.445 0 -2.551 -0.477 -3.32 -1.434 c -0.754 -0.973 -1.133 -2.398 -1.133 -4.293" style="fill:#fff;fill-opacity:1;stroke:none;fill-rule:nonzero"/>
  <path d="m 31.04 59.941 c 0.066 0.016 0.145 0.016 0.219 0.016 c 0.074 0 0.148 0 0.219 0 c 0.551 0 1.02 -0.09 1.391 -0.273 c 0.375 -0.195 0.688 -0.453 0.914 -0.781 c 0.234 -0.336 0.402 -0.723 0.492 -1.176 c 0.102 -0.461 0.16 -0.961 0.16 -1.508 c 0 -0.469 -0.039 -0.93 -0.117 -1.375 c -0.082 -0.453 -0.227 -0.848 -0.418 -1.191 c -0.203 -0.344 -0.469 -0.609 -0.813 -0.813 c -0.344 -0.219 -0.789 -0.316 -1.336 -0.316 c -0.098 0 -0.227 0 -0.352 0.016 c -0.133 0 -0.25 0.008 -0.359 0.035 l 0 7.367 m 5.879 -3.723 c 0 1.023 -0.152 1.887 -0.438 2.609 c -0.285 0.711 -0.672 1.289 -1.176 1.734 c -0.5 0.453 -1.105 0.777 -1.809 0.996 c -0.688 0.203 -1.441 0.293 -2.281 0.293 c -0.438 0 -0.863 -0.016 -1.289 -0.066 c -0.414 -0.031 -0.848 -0.102 -1.328 -0.191 l 0 -10.707 c 0.555 -0.102 1.074 -0.176 1.57 -0.211 c 0.484 -0.031 0.945 -0.047 1.367 -0.047 c 0.805 0 1.543 0.098 2.203 0.316 c 0.672 0.211 1.242 0.547 1.703 1.01 c 0.469 0.453 0.82 1.031 1.07 1.734 c 0.27 0.695 0.406 1.543 0.406 2.531" style="fill:#fff;fill-opacity:1;stroke:none;fill-rule:nonzero"/>
  <path d="m 46.754 58.4 c 0 0.664 -0.125 1.215 -0.375 1.668 c -0.254 0.438 -0.598 0.789 -1.031 1.066 c -0.43 0.258 -0.941 0.445 -1.535 0.563 c -0.578 0.109 -1.207 0.156 -1.887 0.156 c -0.535 0 -1.098 -0.023 -1.684 -0.082 c -0.582 -0.051 -1.16 -0.125 -1.73 -0.234 l 0 -10.648 c 0.473 -0.066 0.973 -0.125 1.535 -0.176 c 0.555 -0.059 1.098 -0.082 1.645 -0.082 c 0.93 0 1.676 0.082 2.262 0.258 c 0.578 0.168 1.039 0.395 1.367 0.68 c 0.336 0.27 0.563 0.578 0.68 0.914 c 0.117 0.344 0.176 0.688 0.176 1.031 c 0 0.52 -0.141 0.98 -0.438 1.383 c -0.273 0.402 -0.652 0.723 -1.129 0.957 c 0.828 0.266 1.398 0.637 1.684 1.098 c 0.313 0.461 0.461 0.945 0.461 1.449 m -5.801 -1.484 l 0 2.977 c 0.176 0.027 0.359 0.043 0.563 0.051 c 0.207 0.016 0.41 0.016 0.609 0.016 c 0.277 0 0.555 -0.016 0.816 -0.051 c 0.266 -0.047 0.492 -0.125 0.695 -0.223 c 0.207 -0.129 0.383 -0.285 0.52 -0.488 c 0.125 -0.211 0.191 -0.477 0.191 -0.797 c 0 -0.527 -0.191 -0.906 -0.57 -1.133 c -0.375 -0.234 -0.879 -0.352 -1.508 -0.352 l -1.316 0 m 0.957 -1.809 c 0.617 0 1.09 -0.117 1.406 -0.352 c 0.32 -0.254 0.48 -0.59 0.48 -1.016 c 0 -0.262 -0.051 -0.461 -0.145 -0.613 c -0.094 -0.168 -0.219 -0.293 -0.379 -0.375 c -0.156 -0.094 -0.344 -0.152 -0.551 -0.176 c -0.211 -0.035 -0.43 -0.051 -0.656 -0.051 c -0.184 0 -0.375 0 -0.578 0.016 c -0.191 0.008 -0.375 0.023 -0.535 0.051 l 0 2.516 l 0.957 0" style="fill:#fff;fill-opacity:1;stroke:none;fill-rule:nonzero"/>
  <path d="m 38 0 l 17.984 18 l -15.227 0 c -1.348 0 -2.758 -1.426 -2.758 -2.773 m 0 -15.227" style="fill:#fff;fill-opacity:0.392;stroke:none;fill-rule:nonzero"/>
  <path d="m 32 21.992 c -5.523 0 -10 1.398 -10 3.129 l 0 2.496 c 0 1.73 4.477 3.129 10 3.129 c 5.523 0 10 -1.398 10 -3.129 l 0 -2.496 c 0 -1.73 -4.477 -3.129 -10 -3.129 m 0 0" style="fill:#fff;fill-opacity:1;stroke:none;fill-rule:nonzero"/>
  <path d="m 31.969 31.992 c -4.48 0 -8.254 -0.914 -9.527 -2.184 c -0.301 0.293 -0.441 0.609 -0.441 0.938 l 0 2.5 c 0 1.727 4.477 3.129 10 3.129 c 5.523 0 10 -1.402 10 -3.129 l 0 -2.5 c 0 -0.328 -0.176 -0.645 -0.469 -0.938 c -1.273 1.27 -5.086 2.184 -9.563 2.184 m 0 0" style="fill:#fff;fill-opacity:1;stroke:none;fill-rule:nonzero"/>
  <path d="m 31.969 37.617 c -4.48 0 -8.254 -0.914 -9.527 -2.18 c -0.301 0.293 -0.441 0.605 -0.441 0.938 l 0 2.496 c 0 1.73 4.477 3.129 10 3.129 c 5.523 0 10 -1.398 10 -3.129 l 0 -2.496 c 0 -0.332 -0.176 -0.645 -0.469 -0.938 c -1.273 1.266 -5.086 2.18 -9.563 2.18 m 0 0" style="fill:#fff;fill-opacity:1;stroke:none;fill-rule:nonzero"/>
 </g>
</svg>
